X:107
T:Ack, ack, om det vore kv\"all
R:sl\"angpolska
H:jfr #104
A:\"Osterg\"otland
B:SvL \"Ogl 497, fr{\aa}n Tidersrum
Z:id:hn-sp-107
M:3/4
L:1/16
K:Am
E4 E4 ^G2A2 | B3A A6 E2 |
A2^G2 A2c2 e2c2 | c2B2 B4 z4 :|
|: B2=G2 G2B2 B2B2 | c2A2 A2c2 c2B2 |
B4 =G4 ^F2F2 | A2=G2 E4 z4 :|
W:Ack, ack, om det vore kv\"all,
W:och alla flickor sutto p{\aa} ett spj\"all.
W:Och jag i spj\"allet droge, och de i askan sloge,
W:Ack, ack, om det vore kv\"all.
W:
<end>
<start>
